svg/black/tomo.svg

<?xml version="1.0" encoding="UTF-8"?>
<svg width="32px" height="32px" viewBox="0 0 32 32" version="1.1" xmlns="http://www.w3.org/2000/svg" xmlns:xlink="http://www.w3.org/1999/xlink">
    <!-- Generator: Sketch 52.5 (67469) - http://www.bohemiancoding.com/sketch -->
    <title>svg/black/tomo</title>
    <desc>Created with Sketch.</desc>
    <g id="black/tomo" stroke="none" stroke-width="1" fill="none" fill-rule="evenodd">
        <path d="M16,32 C7.163444,32 0,24.836556 0,16 C0,7.163444 7.163444,0 16,0 C24.836556,0 32,7.163444 32,16 C32,24.836556 24.836556,32 16,32 Z M18.5248,14.464 C18.8270102,14.4772548 19.0827452,14.2430102 19.096,13.9408 C19.1092548,13.6385898 18.8750102,13.3828548 18.5728,13.3696 L14.7328,13.3696 L14.7328,12.4096 C14.6555382,12.1369323 14.4066027,11.9487333 14.1232,11.9487333 C13.8397973,11.9487333 13.5908618,12.1369323 13.5136,12.4096 L13.5136,13.3696 L12.4864,13.3696 C12.2909043,13.3696 12.1102588,13.4738957 12.0125109,13.6432 C11.914763,13.8125043 11.914763,14.0210957 12.0125109,14.1904 C12.1102588,14.3597043 12.2909043,14.464 12.4864,14.464 L13.5136,14.464 L13.5136,17.8048 C13.5241285,19.5538017 14.9421745,20.9675635 16.6912,20.9728 C17.3918702,20.9621507 18.0684151,20.7152117 18.6112,20.272 L18.8416,20.08 C19.043295,19.9381948 19.1461797,19.6935719 19.1064694,19.4502353 C19.0667591,19.2068987 18.8914428,19.0076756 18.6551298,18.9373494 C18.4188168,18.8670232 18.1630982,18.9379711 17.9968,19.12 L17.824,19.264 C17.2625208,19.7288991 16.4797999,19.8192131 15.8272,19.4944 C15.1604151,19.1768269 14.7348907,18.5049461 14.7328,17.7664 L14.7328,14.464 L18.5248,14.464 Z M24.7648,18.1888 C24.7902873,18.0640396 24.7651564,17.9342644 24.6949385,17.8280373 C24.6247205,17.7218102 24.5151706,17.6478374 24.3904,17.6224 L24.1504,17.6224 C23.9303893,17.6212752 23.7389879,17.7728013 23.6896,17.9872 C23.0554296,20.7683557 20.8961805,22.9476198 18.1209942,23.6074234 C15.345808,24.2672269 12.4368002,23.2929464 10.6187949,21.0947982 C8.80078954,18.8966499 8.38961718,15.8565041 9.5584,13.2544 C10.2531246,11.5765385 11.5861385,10.2435246 13.264,9.5488 C16.6098108,8.05471186 20.5453972,9.18032198 22.5952,12.2176 C22.7411638,12.4307914 23.0296921,12.4901943 23.248,12.352 L23.3344,12.2944 C23.5741971,12.1422726 23.6469625,11.825529 23.4976,11.584 C21.2688045,8.3030656 17.0923934,6.96107191 13.3696,8.3296 C11.0446086,9.12881723 9.20825244,10.9404532 8.3776,13.2544 C7.21340896,16.26094 7.83242373,19.6663123 9.98021205,22.0708142 C12.1280004,24.475316 15.4421887,25.4732614 18.5605536,24.6544671 C21.6789185,23.8356728 24.0753314,21.3382852 24.7648,18.1888 Z M16.8736,4.9504 L15.9136,4.9504 C12.3991413,5.09863656 9.1481344,6.85500005 7.09773414,9.71319053 C5.04733389,12.571381 4.42539451,16.2137772 5.4112,19.5904 C5.49893457,19.8791481 5.80387691,20.0423567 6.0928,19.9552 L6.1696,19.9552 C6.40926035,19.8393832 6.53081531,19.5679104 6.4576,19.312 C5.15026968,14.8342099 7.00023413,10.0352707 10.9749477,7.59367927 C14.9496612,5.15208782 20.0665425,5.67142524 23.4696375,8.86182672 C26.8727324,12.0522282 27.7207683,17.1250007 25.5404195,21.2488091 C23.3600707,25.3726175 18.690337,27.528023 14.1376,26.512 C13.942245,26.4708385 13.7406127,26.5455172 13.6192,26.704 C13.4983975,26.8545097 13.464149,27.0568414 13.5286878,27.2387237 C13.5932267,27.4206059 13.7473478,27.5560969 13.936,27.5968 C18.093985,28.3582767 22.3328498,26.7634932 24.9577504,23.4500988 C27.582651,20.1367043 28.1652461,15.6453914 26.4725941,11.7719413 C24.779942,7.89849129 21.0882564,5.27498864 16.8736,4.9504 Z" id="Combined-Shape" fill="#000000" fill-rule="nonzero"></path>
    </g>
</svg>

<svg width="32" height="32" viewBox="0 0 32 32" xmlns="http://www.w3.org/2000/svg"><path d="M16 32C7.163 32 0 24.837 0 16S7.163 0 16 0s16 7.163 16 16-7.163 16-16 16zm2.525-17.536a.548.548 0 0 0 .048-1.094h-3.84v-.96a.634.634 0 0 0-1.22 0v.96h-1.027a.547.547 0 0 0 0 1.094h1.028v3.34a3.187 3.187 0 0 0 3.177 3.169 3.11 3.11 0 0 0 1.92-.701l.23-.192a.643.643 0 1 0-.844-.96l-.173.144a1.843 1.843 0 0 1-1.997.23 1.92 1.92 0 0 1-1.094-1.728v-3.302h3.792zm6.24 3.725a.48.48 0 0 0-.375-.567h-.24a.47.47 0 0 0-.46.365 7.488 7.488 0 1 1-14.132-4.733 6.845 6.845 0 0 1 3.706-3.705 7.546 7.546 0 0 1 9.331 2.669.48.48 0 0 0 .653.134l.086-.058a.518.518 0 0 0 .164-.71A8.64 8.64 0 0 0 13.37 8.33a8.102 8.102 0 0 0-4.992 4.924 8.582 8.582 0 1 0 16.387 4.935zM16.874 4.95h-.96A11.443 11.443 0 0 0 5.41 19.59a.547.547 0 0 0 .682.365h.077a.547.547 0 0 0 .288-.643 10.349 10.349 0 1 1 7.68 7.2.518.518 0 0 0-.519.192.557.557 0 0 0 .317.893A11.434 11.434 0 1 0 16.874 4.95z"/></svg>
